packages/kaspersky-hexa-ui-icons/src/iconsSVGs/64x42/FlagCm.svg

<svg xmlns="http://www.w3.org/2000/svg" width="64" height="42" fill="none" viewBox="0 0 64 42"><g clip-path="url(#a)"><rect width="64" height="42" fill="#fff" rx="5"/><path fill="url(#b)" d="M30.6001 0h30.8v42h-30.8z"/><path fill="#059170" fill-rule="evenodd" d="M0 42h21.3334V0H0z" clip-rule="evenodd"/><path fill="#e21a30" fill-rule="evenodd" d="M21.3335 42h21.3334V0H21.3335z" clip-rule="evenodd"/><path fill="#ffdc44" fill-rule="evenodd" d="M42.6666 42H64V0H42.6666z" clip-rule="evenodd"/><path fill="#ffdc42" fill-rule="evenodd" d="m31.9999 23.73-4.1145 2.9331 1.5181-4.8195-4.061-3.0067 5.0527-.0455L31.9999 14l1.6046 4.7914 5.0528.0455-4.061 3.0067 1.5181 4.8195z" clip-rule="evenodd"/></g><defs><linearGradient id="b" x1="31" x2="31" y1="0" y2="42" gradientUnits="userSpaceOnUse"><stop stop-color="#ffdc44"/><stop offset="1" stop-color="#fdd216"/></linearGradient><clipPath id="a"><rect width="64" height="42" fill="#fff" rx="5"/></clipPath></defs></svg>

<svg width="64" height="42" viewBox="0 0 64 42" fill="none" xmlns="http://www.w3.org/2000/svg">
<g clip-path="url(#clip0_37941_2218)">
<rect width="64" height="42" rx="5" fill="white"/>
<rect x="30.6001" width="30.8" height="42" fill="url(#paint0_linear_37941_2218)"/>
<path fill-rule="evenodd" clip-rule="evenodd" d="M0 42H21.3334V0H0V42Z" fill="#059170"/>
<path fill-rule="evenodd" clip-rule="evenodd" d="M21.3335 42H42.6669V0H21.3335V42Z" fill="#E21A30"/>
<path fill-rule="evenodd" clip-rule="evenodd" d="M42.6666 42H64V0H42.6666V42Z" fill="#FFDC44"/>
<path fill-rule="evenodd" clip-rule="evenodd" d="M31.9999 23.73L27.8854 26.6631L29.4035 21.8436L25.3425 18.8369L30.3952 18.7914L31.9999 14L33.6045 18.7914L38.6573 18.8369L34.5963 21.8436L36.1144 26.6631L31.9999 23.73Z" fill="#FFDC42"/>
</g>
<defs>
<linearGradient id="paint0_linear_37941_2218" x1="30.6001" y1="0" x2="30.6001" y2="42" gradientUnits="userSpaceOnUse">
<stop stop-color="#FFDC44"/>
<stop offset="1" stop-color="#FDD216"/>
</linearGradient>
<clipPath id="clip0_37941_2218">
<rect width="64" height="42" rx="5" fill="white"/>
</clipPath>
</defs>
</svg>
